/* XPM */
static const char *ViewGrid_xpm[] = {
"32 32 5 1",
"a c None",
"b c #000000",
"c c #040404",
"d c #010101",
"e c #030303",
"aaaaaaaaaaaaaaaaaaaaaaaaaaaaaaaa",
"aaaaaaaaaaaaaaaaaaaaaaaaaaaaaaaa",
"aaaaaaaaaaaaaaaaaaaaaaaaaaaaaaaa",
"aaaaaaaaaaaaaaaaaaaaaaaaaaaaaaaa",
"aaaaaaaaaaaaaaaaaaaaaaaaaaaaaaaa",
"aaaaabbbbbbbbbbaabbbbbbbbbbaaaaa",
"aaaaabbbbbbbbbbaabbbbbbbbbbaaaaa",
"aaaaabbbbbbbbbbaabbbbbbbbbbaaaaa",
"aaaaabbbbbbbbbbaabbbbbbbbbbaaaaa",
"aaaaabbbbbbbbbbaabbbbbbbbbbaaaaa",
"aaaaabbbbbbbbbbaabbbbbbbbbbaaaaa",
"aaaaabbbbbbbbbbaabbbbbbbbbbaaaaa",
"aaaaabbbbbbbbbbaabbbbbbbbbbaaaaa",
"aaaaabbbbbbbbbbaabbbbbbbbbbaaaaa",
"aaaaabbbbbbbbbbaabbbbbbbbbbaaaaa",
"aaaaaaaaaaaaaaaaaaaaaaaaaaaaaaaa",
"aaaaaaaaaaaaaaaaaaaaaaaaaaaaaaaa",
"aaaaabbbbbbbbbbaacbbbbbbbbdaaaaa",
"aaaaabbbbbbbbbbaabbbbbbbbbbaaaaa",
"aaaaabbbbbbbbbbaabbbbbbbbbbaaaaa",
"aaaaabbbbbbbbbbaabbbbbbbbbbaaaaa",
"aaaaabbbbbbbbbbaabbbbbbbbbbaaaaa",
"aaaaabbbbbbbbbbaabbbbbbbbbbaaaaa",
"aaaaabbbbbbbbbbaabbbbbbbbbbaaaaa",
"aaaaabbbbbbbbbbaabbbbbbbbbbaaaaa",
"aaaaabbbbbbbbbbaabbbbbbbbbbaaaaa",
"aaaaabbbbbbbbbbaaebbbbbbbbdaaaaa",
"aaaaaaaaaaaaaaaaaaaaaaaaaaaaaaaa",
"aaaaaaaaaaaaaaaaaaaaaaaaaaaaaaaa",
"aaaaaaaaaaaaaaaaaaaaaaaaaaaaaaaa",
"aaaaaaaaaaaaaaaaaaaaaaaaaaaaaaaa",
"aaaaaaaaaaaaaaaaaaaaaaaaaaaaaaaa"
};
