/* XPM */
static const char *ViewList_xpm[] = {
"32 32 13 1",
"a c None",
"b c #000000",
"c c #010101",
"d c #090909",
"e c #0B0B0B",
"f c #0A0A0A",
"g c #0C0C0C",
"h c #0D0D0D",
"i c #040404",
"j c #030303",
"k c #020202",
"l c #050505",
"m c #060606",
"aaaaaaaaaaaaaaaaaaaaaaaaaaaaaaaa",
"aaaaaaaaaaaaaaaaaaaaaaaaaaaaaaaa",
"aaaaaaaaaaaaaaaaaaaaaaaaaaaaaaaa",
"aaaaaaaaaaaaaaaaaaaaaaaaaaaaaaaa",
"aaaaaaaaaaaaaaaaaaaaaaaaaaaaaaaa",
"aaaaaaaaaaaaaaaaaaaaaaaaaaaaaaaa",
"aaaaaaaaaaaaaaaaaaaaaaaaaaaaaaaa",
"aaaabbbbcaaabbbbbbbbbbbbbbbbaaaa",
"aaaabbbbbaaabbbbbbbbbbbbbbbbaaaa",
"aaaabbbbbaaabbbbbbbbbbbbbbbbaaaa",
"aaaabbbbbaaabbbbbbbbbbbbbbbbaaaa",
"aaaadeffaaaagggggggggggggghfaaaa",
"aaaaaaaaaaaaaaaaaaaaaaaaaaaaaaaa",
"aaaaaaaaaaaaaaaaaaaaaaaaaaaaaaaa",
"aaaabbbbbaaabbbbbbbbbbbbbbbbaaaa",
"aaaabbbbbaaabbbbbbbbbbbbbbbbaaaa",
"aaaabbbbbaaabbbbbbbbbbbbbbbbaaaa",
"aaaabbbbbaaabbbbbbbbbbbbbbbbaaaa",
"aaaaibbbaaaabbbbbbbbbbbbbbbbaaaa",
"aaaaaaaaaaaaaaaaaaaaaaaaaaaaaaaa",
"aaaaaaaaaaaaaaaaaaaaaaaaaaaaaaaa",
"aaaabbbbbaaabbbbbbbbbbbbbbbbaaaa",
"aaaabbbbbaaabbbbbbbbbbbbbbbbaaaa",
"aaaabbbbbaaabbbbbbbbbbbbbbbbaaaa",
"aaaabbbbbaaabbbbbbbbbbbbbbbbaaaa",
"aaaajkkklaaajjjjjjjjjjjjjjjmaaaa",
"aaaaaaaaaaaaaaaaaaaaaaaaaaaaaaaa",
"aaaaaaaaaaaaaaaaaaaaaaaaaaaaaaaa",
"aaaaaaaaaaaaaaaaaaaaaaaaaaaaaaaa",
"aaaaaaaaaaaaaaaaaaaaaaaaaaaaaaaa",
"aaaaaaaaaaaaaaaaaaaaaaaaaaaaaaaa",
"aaaaaaaaaaaaaaaaaaaaaaaaaaaaaaaa"
};
